svgs/regular/clipboard.svg

<svg xmlns="http://www.w3.org/2000/svg" viewBox="0 0 384 512"><!--! Font Awesome Free 6.6.0 by @fontawesome - https://fontawesome.com License - https://fontawesome.com/license/free (Icons: CC BY 4.0, Fonts: SIL OFL 1.1, Code: MIT License) Copyright 2024 Fonticons, Inc. --><path d="M280 64l40 0c35.3 0 64 28.7 64 64l0 320c0 35.3-28.7 64-64 64L64 512c-35.3 0-64-28.7-64-64L0 128C0 92.7 28.7 64 64 64l40 0 9.6 0C121 27.5 153.3 0 192 0s71 27.5 78.4 64l9.6 0zM64 112c-8.8 0-16 7.2-16 16l0 320c0 8.8 7.2 16 16 16l256 0c8.8 0 16-7.2 16-16l0-320c0-8.8-7.2-16-16-16l-16 0 0 24c0 13.3-10.7 24-24 24l-88 0-88 0c-13.3 0-24-10.7-24-24l0-24-16 0zm128-8a24 24 0 1 0 0-48 24 24 0 1 0 0 48z"/></svg>

<svg xmlns="http://www.w3.org/2000/svg" viewBox="0 0 384 512"><!--! Font Awesome Free 6.5.2 by @fontawesome - https://fontawesome.com License - https://fontawesome.com/license/free (Icons: CC BY 4.0, Fonts: SIL OFL 1.1, Code: MIT License) Copyright 2024 Fonticons, Inc. --><path d="M280 64h40c35.3 0 64 28.7 64 64V448c0 35.3-28.7 64-64 64H64c-35.3 0-64-28.7-64-64V128C0 92.7 28.7 64 64 64h40 9.6C121 27.5 153.3 0 192 0s71 27.5 78.4 64H280zM64 112c-8.8 0-16 7.2-16 16V448c0 8.8 7.2 16 16 16H320c8.8 0 16-7.2 16-16V128c0-8.8-7.2-16-16-16H304v24c0 13.3-10.7 24-24 24H192 104c-13.3 0-24-10.7-24-24V112H64zm128-8a24 24 0 1 0 0-48 24 24 0 1 0 0 48z"/></svg>
